X: 13754
T: Forget Me Not
R: hornpipe
M: 4/4
K: Gmajor
Bc|dBGD B,DGB|cBAG FGAc|Bdgf edcB|
AGFG ABc^c|dBGD B,DGB|cBAG FGAc|Bdgf ed^ce|
[1 dDFA d2:|2 d2 d2 d2|:fg|agfe fgef|decd BcAB|GABc defg|
fede dcBc|Bggg fgef|deee decd|BcdB ABcA|(3GBc (3def g2:|

